16x16/emblems/package-available-locked.svg

<svg height="16" width="16" xmlns="http://www.w3.org/2000/svg"><rect fill="#f67400" height="16" rx="2" width="16"/><path d="m2 0c-1.108 0-2 .892-2 2v12c0 1.108.892 2 2 2h12c1.108 0 2-.892 2-2v-12c0-1.108-.892-2-2-2zm0 1h12c.554 0 1 .446 1 1v12c0 .554-.446 1-1 1h-12c-.554 0-1-.446-1-1v-12c0-.554.446-1 1-1z" fill="#232629" fill-opacity=".6"/><path d="m8 2a6 6 0 0 0 -6 6 6 6 0 0 0 6 6 6 6 0 0 0 6-6 6 6 0 0 0 -6-6zm0 2a4 4 0 0 1 4 4 4 4 0 0 1 -.559 2.027l-5.468-5.467a4 4 0 0 1 2.027-.56zm-3.441 1.973 5.468 5.468a4 4 0 0 1 -2.027.559 4 4 0 0 1 -4-4 4 4 0 0 1 .559-2.027z" fill="#fff"/></svg>

<svg height="16" width="16" xmlns="http://www.w3.org/2000/svg">
    <rect fill="#f67400" height="16" rx="2" width="16"/>
    <path d="M2 0C.892 0 0 .892 0 2v12c0 1.108.892 2 2 2h12c1.108 0 2-.892 2-2V2c0-1.108-.892-2-2-2zm0 1h12c.554 0 1 .446 1 1v12c0 .554-.446 1-1 1H2c-.554 0-1-.446-1-1V2c0-.554.446-1 1-1z" fill="#232629" fill-opacity=".6"/>
    <path d="M8 2a6 6 0 0 0-6 6 6 6 0 0 0 6 6 6 6 0 0 0 6-6 6 6 0 0 0-6-6zm0 2a4 4 0 0 1 4 4 4 4 0 0 1-.559 2.027L5.973 4.56A4 4 0 0 1 8 4zM4.559 5.973l5.468 5.468A4 4 0 0 1 8 12a4 4 0 0 1-4-4 4 4 0 0 1 .559-2.027z" fill="#f4f4f7"/>
</svg>
